icons/1_Primary/Ko-fi.svg

<svg width="1024" height="1024" viewBox="0 0 1024 1024" fill="none" xmlns="http://www.w3.org/2000/svg">
<g clip-path="url(#clip0_2_2619)">
<path d="M512 1024C794.77 1024 1024 794.77 1024 512C1024 229.23 794.77 0 512 0C229.23 0 0 229.23 0 512C0 794.77 229.23 1024 512 1024Z" fill="#FF837D"/>
<path d="M512 226C354 226 226 354 226 512C226 670 354 798 512 798C670 798 798 670 798 512C798 354 670 226 512 226ZM628.6 593.33C629 613.6 625 650 585.82 659.77C582.684 660.533 579.468 660.919 576.24 660.92C507.48 661.35 364.09 661.77 364.09 661.77C364.09 661.77 320.17 661.77 317.21 617.95C316.21 543.7 316.75 404.7 316.75 404.7V401.21C316.75 395.86 320.98 385.21 331.91 385.21H646.09C668.233 385.117 689.872 391.814 708.09 404.4C725.64 416.66 742.77 436.48 748.79 468.29C762.82 542.17 707.3 597.7 628.6 593.33ZM686.38 454.2C692.65 461.48 697.66 471.73 697.66 485.89C697.66 520.5 679.83 534.13 660.42 540.42C650.328 541.684 640.129 541.859 630 540.94V438.17H650.65C657.408 438.116 664.098 439.52 670.264 442.286C676.43 445.053 681.927 449.116 686.38 454.2ZM548.78 531.78C526.25 558.07 476.24 603.71 476.24 603.71C475.466 604.354 474.511 604.74 473.507 604.815C472.503 604.89 471.501 604.651 470.64 604.13C469.933 603.639 469.264 603.094 468.64 602.5C460.64 594.5 407.72 547.37 395.64 530.99C382.82 513.53 376.82 482.17 394 463.89C411.18 445.61 448.35 444.25 472.9 471.25C472.9 471.25 501.21 439.02 535.62 453.83C570.03 468.64 568.82 508.26 548.78 531.78Z" fill="white"/>
</g>
<defs>
<clipPath id="clip0_2_2619">
<rect width="1024" height="1024" fill="white"/>
</clipPath>
</defs>
</svg>

<svg xmlns="http://www.w3.org/2000/svg" width="1024" height="1024" fill="none">
   <g clip-path="url(#a)">
      <path fill="#FF837D" d="M512 1024c282.77 0 512-229.23 512-512S794.77 0 512 0 0 229.23 0 512s229.23 512 512 512Z"/>
      <path fill="#fff" d="M512 226c-158 0-286 128-286 286s128 286 286 286 286-128 286-286-128-286-286-286Zm116.6 367.33c.4 20.27-3.6 56.67-42.78 66.44a40.576 40.576 0 0 1-9.58 1.15c-68.76.43-212.15.85-212.15.85s-43.92 0-46.88-43.82c-1-74.25-.46-213.25-.46-213.25v-3.49c0-5.35 4.23-16 15.16-16h314.18a108.277 108.277 0 0 1 62 19.19c17.55 12.26 34.68 32.08 40.7 63.89 14.03 73.88-41.49 129.41-120.19 125.04Zm57.78-139.13c6.27 7.28 11.28 17.53 11.28 31.69 0 34.61-17.83 48.24-37.24 54.53a141.73 141.73 0 0 1-30.42.52V438.17h20.65a47.004 47.004 0 0 1 35.73 16.03Zm-137.6 77.58c-22.53 26.29-72.54 71.93-72.54 71.93a4.835 4.835 0 0 1-5.6.42 16.8 16.8 0 0 1-2-1.63c-8-8-60.92-55.13-73-71.51-12.82-17.46-18.82-48.82-1.64-67.1 17.18-18.28 54.35-19.64 78.9 7.36 0 0 28.31-32.23 62.72-17.42 34.41 14.81 33.2 54.43 13.16 77.95Z"/>
   </g>
   <defs>
      <clipPath id="a">
         <path fill="#fff" d="M0 0h1024v1024H0z"/>
      </clipPath>
   </defs>
</svg>
